X:39
T:Midnight on the Water
M:3/4
L:1/8
K:D
|: DE | "D"F2F2F2| "Dmaj7"F2F2F2 | "D6"FA- A3B | "D"AFD2DE |
"Gmaj7"F2d2B2 | A3F DE | "A7"FA- AF EF | "D"D4 :|
|: (3ABc | "D"d3c de | dc BA Bc | "Bm"d3B AF | D4d2 | 
"Em"e4 ef | "A"e2d2e2 | "F#m"f3g fe | "Bm"dc BA Bc | 
"Em"d3c de | d2c2B2 | "F#m"A3B AF | "Bm"D4 DE | 
"Gmaj7"F2d2B2 | A3F DE | "A7"FA- AF EF | "D"D4 :|
